X:1
T: Inchgarth Strathspey
C:
R:Strathspey
Q: 128
K:F
M:4/4
L:1/16
|:A3B|c4 A3F B3G EG3|F4 A4 C6^C2|D4 G3A BD3 G3F|E3C EG3 B4 A3B|
c4 A3F B3G EG3|F4 A4 C4 ^C4|D4 B3G EC3 A3G|F12 E3F|
G4 EC3 B3G EC3|F3E FG3 A4 c4|=B4 AG3 f3d Bd3|c4 e3d c3^c d3e|
f4 F4 f3A f3e|e3d d3^c d4 G3E|C4 B3G EC3 A3G|F12:|
